X:125
T:Humours Of Carrigaholt, The
Z:Kenny
S:https://thesession.org/tunes/1730#setting1730
R:reel
M:4/4
L:1/8
K:Dmaj
| dcAF GBAG | F2 DE FGAB | =cBAF G2 FG | Addc dgfe |
dcAF GBAG | F2 DE FGAB | =cBAF G2 FG | Addc d4 |
fdde fdgf | edcd efge | fd d2 fdgf | edcd e3 g |
fdde fdgf | edcd efge | agfa gfec | dfec d4 |

